X: 1935
T: Vechi Var
C: Ahmet Avni Konuk
O: Turkey
F: http://compmusic.upf.edu/node/140
N: vechiarazbar--kupe--darb--vechi--ahmet_avni_konuk
N: makam= vechiarazbar
N: form= kupe
N: usul= darb = 6/4
M: 6/4
L: 1/16
K: C _1/4B _1/4e  
Q: 1/4=84
%%MIDI tuningsystem comma53
_2/4e4 f4 g8 f4 f2e2  | g2_b2 a2g2 f6g2 g6z2  | \
w:  Vec *  hi   |  var  *  *  *  Vech_  | 
c'4 _b8 a8 a2g2  | g4 g2a2 g2f2 _2/4e2d2 e2f2 e4  | 
w:  i  A  |  raz *  *  bâr   | 
d4 _2/4e4 f12 e2d2  | d4 d2_2/4e2 g3^3/4f e2d2 c3_2/4B c4  | \
w:  et *  se   |  şûh_ *  *  ı   | 
d4 _2/4e4 f8 e4 d4  | d2c2 _2/4B2d2 c14z2  | 
w:  mut *  rı  |  bân    | 
d4 f4 g12 g2a2  | a2g2 f2_2/4e2 d12 a4  | \
w:  Din *  le  |  yen *  *  *  ler   | 
a4 a2g2 g4 g2f2 f4 f2_2/4e2  | _2/4e4 e2d2 g3^3/4f e2d2 c3_2/4B c4  | 
w:  mest  *  *  o  |  lur  *  *  seyr_  | 
d2c2 _2/4B2c2 d14z2  | _2/4e8 e4 ^3/4f4 e4 d4  | \
w:  et *  *  *  me  |  den  vec  | 
d4 c2_2/4B2 B2c2 d2_2/4e2 ^3/4f4 _7/8e2d2  | 
w:  hin  *  *  he  | 
d2c2 {d}c2_2/4B2 B14z2  | |


